modules/feathericon/icons/twitter.svg

<?xml version="1.0" encoding="UTF-8"?>
<svg width="24px" height="24px" viewBox="0 0 24 24" version="1.1" xmlns="http://www.w3.org/2000/svg" xmlns:xlink="http://www.w3.org/1999/xlink">
    <!-- Generator: sketchtool 52.2 (67145) - http://www.bohemiancoding.com/sketch -->
    <title>twitter</title>
    <desc>Created with sketchtool.</desc>
    <g id="brand" stroke="none" stroke-width="1" fill="none" fill-rule="evenodd">
        <g id="twitter" fill="#000000" fill-rule="nonzero">
            <path d="M8.28251301,20.262505 C15.8295318,20.262505 19.9591837,14.0040016 19.9591837,8.58583433 C19.9591837,8.40976391 19.9591837,8.23369348 19.9511805,8.05762305 C20.7515006,7.48139256 21.4477791,6.75310124 22,5.92877151 C21.2637055,6.25690276 20.4713886,6.4729892 19.6390556,6.57703081 C20.487395,6.07282913 21.1356543,5.2645058 21.4477791,4.30412165 C20.6554622,4.77631052 19.77511,5.11244498 18.8387355,5.29651861 C18.0864346,4.49619848 17.0220088,4 15.8455382,4 C13.5806323,4 11.739896,5.84073629 11.739896,8.10564226 C11.739896,8.42577031 11.779912,8.73789516 11.8439376,9.04201681 C8.43457383,8.87394958 5.40936375,7.23329332 3.38455382,4.75230092 C3.03241297,5.36054422 2.83233293,6.06482593 2.83233293,6.81712685 C2.83233293,8.24169668 3.56062425,9.49819928 4.65706283,10.2344938 C3.98479392,10.2104842 3.35254102,10.0264106 2.80032013,9.72228892 L2.80032013,9.77831132 C2.80032013,11.7631052 4.21688675,13.4277711 6.08963585,13.8039216 C5.7454982,13.89996 5.38535414,13.9479792 5.00920368,13.9479792 C4.74509804,13.9479792 4.4889956,13.9239696 4.24089636,13.8759504 C4.76110444,15.5086034 6.28171269,16.6930772 8.07442977,16.72509 C6.66586635,17.8295318 4.89715886,18.4857943 2.97639056,18.4857943 C2.6482593,18.4857943 2.32012805,18.4697879 2,18.4297719 C3.80872349,19.5822329 5.96958784,20.262505 8.28251301,20.262505" id="Shape"></path>
        </g>
    </g>
</svg>

<svg width="24" height="24" viewBox="0 0 24 24" xmlns="http://www.w3.org/2000/svg"><path d="M8.283 20.263c7.547 0 11.676-6.259 11.676-11.677 0-.176 0-.352-.008-.528A8.36 8.36 0 0 0 22 5.928a8.317 8.317 0 0 1-2.36.649 4.129 4.129 0 0 0 1.808-2.273 8.163 8.163 0 0 1-2.61.993A4.096 4.096 0 0 0 15.847 4a4.109 4.109 0 0 0-4.106 4.106c0 .32.04.632.104.936a11.654 11.654 0 0 1-8.46-4.29 4.115 4.115 0 0 0 1.273 5.482A4.151 4.151 0 0 1 2.8 9.722v.056a4.113 4.113 0 0 0 3.29 4.026 4.001 4.001 0 0 1-1.08.144c-.265 0-.521-.024-.77-.072a4.104 4.104 0 0 0 3.834 2.85 8.231 8.231 0 0 1-5.098 1.76c-.328 0-.656-.016-.976-.056a11.674 11.674 0 0 0 6.283 1.833" fill="#000" fill-rule="nonzero"/></svg>
